X: 9518
T: Darkey's Dream
R: barndance
M: 4/4
K: Dmajor
|:A,2 B,>C D>F- F2|E2 DE F>A- A2|d2 c>B A>FD>E|F2 E>D E2 A2|
A,2 B,>C D>F- F2|E2 DE F>A- A2|d2 c>B A>FD>E|1 F>A,B,>C D2 d2:|2 fABc d2 (3ABc||
d2 d>e f>d AF|A>BA>F A2 (3ABc|d2 d>e fd AF|F>EE>F E2 (3ABc|
d2 d>e f>d AF|A>BA>F A2 (3ABc|d2 c2 (3BcB A2|(3GAG (3FGF (3EFE D>B,||

